src/assets/icons/menu/homepage.svg

<svg fill="none" height="32" viewBox="0 0 32 32" width="32" xmlns="http://www.w3.org/2000/svg"><g fill="#fff"><path d="m18 18h-4v7h4z"/><path d="m24.4201 14.18-7.71-7.87999c-.0929-.09373-.2035-.16812-.3254-.21889s-.2526-.07691-.3846-.07691-.2627.02614-.3846.07691c-.1218.05077-.2324.12516-.3254.21889l-7.70998 7.88999c-.18657.1881-.33391.4113-.43348.6568-.09956.2455-.14937.5083-.14652.7732v8.38c-.00078.5119.19477 1.0046.54637 1.3767s.83249.5952 1.34363.6233h3.10998v-9c0-.2652.1054-.5196.2929-.7071s.4419-.2929.7071-.2929h6c.2652 0 .5196.1054.7071.2929.1876.1875.2929.4419.2929.7071v9h3.11c.5112-.0281.992-.2512 1.3436-.6233s.5472-.8648.5464-1.3767v-8.38c.0008-.5371-.2072-1.0534-.58-1.44z"/></g></svg>

<svg xmlns="http://www.w3.org/2000/svg" width="32" height="32" fill="none" viewBox="0 0 32 32"><path fill="#fff" d="M18 18H14V25H18V18Z"/><path fill="#fff" d="M24.4201 14.18L16.7101 6.30001C16.6172 6.20628 16.5066 6.13189 16.3847 6.08112C16.2628 6.03035 16.1321 6.00421 16.0001 6.00421C15.8681 6.00421 15.7374 6.03035 15.6155 6.08112C15.4937 6.13189 15.3831 6.20628 15.2901 6.30001L7.58012 14.19C7.39355 14.3781 7.24621 14.6013 7.14664 14.8468C7.04708 15.0923 6.99727 15.3551 7.00012 15.62V24C6.99934 24.5119 7.19489 25.0046 7.54649 25.3767C7.89809 25.7488 8.37898 25.9719 8.89012 26H12.0001V17C12.0001 16.7348 12.1055 16.4804 12.293 16.2929C12.4805 16.1054 12.7349 16 13.0001 16H19.0001C19.2653 16 19.5197 16.1054 19.7072 16.2929C19.8948 16.4804 20.0001 16.7348 20.0001 17V26H23.1101C23.6213 25.9719 24.1021 25.7488 24.4537 25.3767C24.8053 25.0046 25.0009 24.5119 25.0001 24V15.62C25.0009 15.0829 24.7929 14.5666 24.4201 14.18Z"/></svg>
